icons/svg/subway/subway_suzhou.svg

<?xml version="1.0" encoding="UTF-8" standalone="no"?>
<svg
   xmlns:dc="http://purl.org/dc/elements/1.1/"
   xmlns:cc="http://creativecommons.org/ns#"
   xmlns:rdf="http://www.w3.org/1999/02/22-rdf-syntax-ns#"
   xmlns:svg="http://www.w3.org/2000/svg"
   xmlns="http://www.w3.org/2000/svg"
   xmlns:sodipodi="http://sodipodi.sourceforge.net/DTD/sodipodi-0.dtd"
   xmlns:inkscape="http://www.inkscape.org/namespaces/inkscape"
   width="16"
   height="16"
   id="svg2"
   version="1.1"
   inkscape:version="0.91 r13725"
   sodipodi:docname="subway_suzhou.svg">
  <defs
     id="defs13">
    <sodipodi:namedview
       inkscape:current-layer="svg2"
       inkscape:window-maximized="1"
       inkscape:window-y="-8"
       inkscape:window-x="-8"
       inkscape:cy="65"
       inkscape:cx="77.5"
       inkscape:zoom="1.8153846"
       showgrid="false"
       id="namedview8-4"
       inkscape:window-height="837"
       inkscape:window-width="1440"
       inkscape:pageshadow="2"
       inkscape:pageopacity="0"
       guidetolerance="10"
       gridtolerance="10"
       objecttolerance="10"
       borderopacity="1"
       bordercolor="#666666"
       pagecolor="#ffffff" />
    <sodipodi:namedview
       inkscape:current-layer="svg2"
       inkscape:window-maximized="1"
       inkscape:window-y="-8"
       inkscape:window-x="-8"
       inkscape:cy="65"
       inkscape:cx="77.5"
       inkscape:zoom="1.8153846"
       showgrid="false"
       id="namedview8-1"
       inkscape:window-height="837"
       inkscape:window-width="1440"
       inkscape:pageshadow="2"
       inkscape:pageopacity="0"
       guidetolerance="10"
       gridtolerance="10"
       objecttolerance="10"
       borderopacity="1"
       bordercolor="#666666"
       pagecolor="#ffffff" />
  </defs>
  <sodipodi:namedview
     pagecolor="#ffffff"
     bordercolor="#666666"
     borderopacity="1"
     objecttolerance="10"
     gridtolerance="10"
     guidetolerance="10"
     inkscape:pageopacity="0"
     inkscape:pageshadow="2"
     inkscape:window-width="1920"
     inkscape:window-height="1006"
     id="namedview11"
     showgrid="true"
     inkscape:zoom="45.254834"
     inkscape:cx="9.6715745"
     inkscape:cy="8.7159805"
     inkscape:window-x="1920"
     inkscape:window-y="0"
     inkscape:window-maximized="1"
     inkscape:current-layer="svg2"
     showguides="false">
    <sodipodi:guide
       position="0,0"
       orientation="0,580"
       id="guide2989" />
    <sodipodi:guide
       position="580,0"
       orientation="-580,0"
       id="guide2991" />
    <sodipodi:guide
       position="580,580"
       orientation="0,-580"
       id="guide2993" />
    <sodipodi:guide
       position="0,580"
       orientation="580,0"
       id="guide2995" />
    <sodipodi:guide
       position="0,0"
       orientation="0,580"
       id="guide2997" />
    <sodipodi:guide
       position="580,0"
       orientation="-580,0"
       id="guide2999" />
    <sodipodi:guide
       position="580,580"
       orientation="0,-580"
       id="guide3001" />
    <sodipodi:guide
       position="0,580"
       orientation="580,0"
       id="guide3003" />
    <inkscape:grid
       type="xygrid"
       id="grid3013"
       empspacing="5"
       visible="true"
       enabled="true"
       snapvisiblegridlinesonly="true" />
  </sodipodi:namedview>
  <metadata
     id="metadata2975">image/svg+xmlen<rdf:RDF>
  <cc:Work
     rdf:about="">
    <dc:format>image/svg+xml</dc:format>
    <dc:type
       rdf:resource="http://purl.org/dc/dcmitype/StillImage" />
    <dc:title></dc:title>
  </cc:Work>
</rdf:RDF>
</metadata>
  <path
     sodipodi:type="inkscape:offset"
     inkscape:radius="0.79760081"
     inkscape:original="M 8.7128906 5.0566406 C 7.6415739 5.0734313 6.2562628 5.2001931 5.1601562 5.921875 C 4.1049152 6.6810519 3.1498271 7.4506641 2.6269531 8.6738281 C 2.5797011 8.9002491 2.6765641 9.1110893 2.8710938 9.2070312 C 3.0085665 9.2748313 3.3567554 9.2861244 5.40625 9.2871094 L 7.7832031 9.2890625 L 8.1425781 9.1660156 C 8.4157473 9.0735993 8.5834959 8.9733032 8.8378906 8.75 L 9.171875 8.4570312 L 7.2597656 8.4316406 C 5.2228023 8.4047961 5.1194586 8.3927133 5.0117188 8.15625 C 4.9005906 7.9123503 5.0306595 7.6735701 5.5527344 7.1523438 C 6.7349426 6.0628932 8.0004713 5.8682406 9.7207031 5.8730469 L 12.039062 5.8515625 L 12.029297 5.0625 C 12.029297 5.0625 10.614398 5.0605037 9.6582031 5.0585938 C 9.393583 5.0582181 9.0699962 5.0510437 8.7128906 5.0566406 z M 7.96875 6.7441406 L 7.6074219 6.9453125 C 7.1546224 7.1976979 6.7851563 7.4563774 6.7851562 7.5214844 C 6.7851564 7.5531134 7.5014777 7.5768475 8.7539062 7.5859375 L 10.724609 7.5996094 L 10.896484 7.6679688 C 11.091888 7.8867252 11.045209 8.1366713 10.746094 8.5234375 C 10.114545 9.2083432 9.3458592 9.8261731 8.3398438 10.070312 C 8.141856 10.121973 7.7877349 10.144531 7.1757812 10.144531 C 6.0768363 10.144531 4.2617187 10.140625 4.2617188 10.140625 L 4.2734375 10.927734 C 5.8492434 10.939754 7.5207081 10.998564 9.1035156 10.798828 C 10.458778 10.516592 11.754947 9.5965899 12.898438 8.2597656 C 12.995897 8.1564246 13.145219 7.9287104 13.230469 7.7519531 C 13.423931 7.3508216 13.432249 7.0474639 13.263672 6.8847656 C 13.263672 6.8847656 13.228472 6.7871976 12.988281 6.7441406 L 7.96875 6.7441406 z "
     style="fill:#fefefe;fill-opacity:1"
     id="path4346"
     d="M 8.7011719,4.2597656 C 7.5777343,4.2773732 6.038783,4.3880292 4.7207031,5.2558594 a 0.79768057,0.79768057 0 0 0 -0.025391,0.019531 C 3.617838,6.0505631 2.5059069,6.9246092 1.8925781,8.359375 a 0.79768057,0.79768057 0 0 0 -0.046875,0.1523438 c -0.1120122,0.5367374 0.1558014,1.1556291 0.671875,1.4101562 0.2925586,0.144287 0.4950279,0.13432 0.8789063,0.146484 0.013802,4.38e-4 0.057896,-4.13e-4 0.072266,0 a 0.79768057,0.79768057 0 0 0 -0.00391,0.08399 l 0.011719,0.787109 a 0.79768057,0.79768057 0 0 0 0.7910156,0.785156 c 1.5602649,0.0119 3.2642463,0.07614 4.9355469,-0.134765 a 0.79768057,0.79768057 0 0 0 0.0625,-0.0098 c 1.588413,-0.33079 3.006275,-1.371817 4.222656,-2.7890624 0.210924,-0.2270777 0.336565,-0.4354858 0.460938,-0.6933594 0.128963,-0.2673978 0.219592,-0.5332097 0.230469,-0.8398437 0.01074,-0.3029013 -0.09731,-0.677817 -0.357422,-0.9355469 -0.03888,-0.042502 -0.073,-0.088113 -0.121094,-0.125 -0.159561,-0.1223678 -0.355837,-0.199484 -0.572266,-0.2382812 a 0.79768057,0.79768057 0 0 0 -0.140625,-0.011719 l -0.158203,0 a 0.79768057,0.79768057 0 0 0 0.0059,-0.1054687 l -0.0098,-0.7890625 A 0.79768057,0.79768057 0 0 0 12.03125,4.265625 c 0,0 -1.41536,-0.002 -2.3710938,-0.00391 -0.2511269,-3.566e-4 -0.5836511,-0.00784 -0.9589843,-0.00195 z m 5.1308591,2.0722656 0.181641,0.28125 c 0,0 -0.05885,-0.1359197 -0.111328,-0.2089843 -0.01833,-0.02552 -0.04827,-0.047482 -0.07031,-0.072266 z"
     transform="translate(-4.5167698e-4,-2.9422947e-4)" />
  <path
     style="fill:#a90d18;fill-opacity:1"
     d="m 4.2725929,10.926813 -0.011369,-0.787355 c 0,0 1.815558,0.005 2.914503,0.005 0.6119536,0 0.9655861,-0.02256 1.1635737,-0.07422 C 9.3453162,9.8260976 10.114963,9.2071805 10.746512,8.5222748 11.045627,8.1355086 11.091037,7.8873619 10.895633,7.6686053 L 10.723378,7.5996591 8.7538986,7.5853672 c -1.2524286,-0.00909 -1.9694788,-0.0324 -1.9694788,-0.064029 0,-0.065107 0.3697887,-0.3243941 0.8225882,-0.5767795 l 0.3616319,-0.2015695 5.0186761,0 c 0.240187,0.043057 0.276865,0.1413891 0.276865,0.1413891 0.168574,0.1626983 0.160102,0.4655034 -0.03336,0.8666349 -0.08525,0.1767573 -0.234739,0.4059286 -0.332203,0.5092696 -1.14349,1.3368243 -2.440891,2.2561572 -3.7961526,2.5383932 -1.5828075,0.199736 -3.2540666,0.140154 -4.8298725,0.128137 z"
     id="path4305"
     inkscape:connector-curvature="0"
     sodipodi:nodetypes="ccsccccsssccscccc" />
  <path
     style="fill:#153a63;fill-opacity:1"
     d="M 2.8708005,9.2069139 C 2.676271,9.1109719 2.5800049,8.9002629 2.6272568,8.6738419 3.1501308,7.4506779 4.103761,6.6799774 5.159002,5.9208005 6.6204774,4.958558 8.5983037,5.0569547 9.6567842,5.0584726 c 0.9561948,0.00191 2.3715438,0.00399 2.3715438,0.00399 l 0.0095,0.7888819 -2.3180479,0.021827 C 7.9995483,5.8683652 6.733538,6.0616271 5.5513298,7.1510776 5.0292549,7.6723039 4.9009177,7.9112512 5.0120458,8.1551509 5.1197858,8.3916142 5.223146,8.404304 7.2601093,8.4311485 L 9.1719809,8.456345 8.8369984,8.7503858 C 8.5826037,8.973689 8.4154831,9.0737032 8.1423139,9.1661228 L 7.7826118,9.2878189 5.4064002,9.2866699 C 3.3569056,9.2856851 3.0082732,9.274714 2.8708005,9.2069139 Z"
     id="path4299"
     inkscape:connector-curvature="0"
     sodipodi:nodetypes="scccccccsscsscss" />
</svg>

<svg width="16" height="16" viewBox="0 0 16 16" fill="none" xmlns="http://www.w3.org/2000/svg">
<path d="M8.70075 4.25949C7.57731 4.27709 6.03836 4.38775 4.72028 5.25558C4.71169 5.26192 4.70322 5.26843 4.69489 5.27511C3.61742 6.05028 2.50549 6.92433 1.89216 8.35909C1.87148 8.40818 1.85578 8.45922 1.84528 8.51144C1.73327 9.04818 2.00108 9.66707 2.51716 9.92159C2.80972 10.0659 3.01218 10.0559 3.39606 10.0681C3.40987 10.0685 3.45396 10.0677 3.46833 10.0681C3.46555 10.096 3.46425 10.124 3.46442 10.1521L3.47614 10.9392C3.4794 11.1474 3.56397 11.3461 3.71178 11.4928C3.85958 11.6395 4.0589 11.7226 4.26715 11.7243C5.82742 11.7362 7.5314 11.8005 9.2027 11.5896C9.22366 11.5871 9.24451 11.5839 9.2652 11.5798C10.8536 11.249 12.2715 10.208 13.4879 8.79071C13.6988 8.56363 13.8244 8.35522 13.9488 8.09735C14.0778 7.82995 14.1684 7.56414 14.1793 7.2575C14.19 6.9546 14.082 6.57969 13.8218 6.32196C13.783 6.27945 13.7488 6.23384 13.7007 6.19696C13.5412 6.07459 13.3449 5.99747 13.1285 5.95868C13.082 5.95062 13.035 5.9467 12.9879 5.94696H12.8297C12.8339 5.91197 12.8359 5.87674 12.8356 5.84149L12.8258 5.05243C12.823 4.84319 12.7381 4.64342 12.5894 4.49619C12.4407 4.34895 12.2401 4.26605 12.0308 4.26534C12.0308 4.26534 10.6155 4.26334 9.65973 4.26143C9.40861 4.26108 9.07608 4.25359 8.70075 4.25948V4.25949ZM13.8316 6.33175L14.0133 6.613C14.0133 6.613 13.9544 6.47708 13.9019 6.40402C13.8836 6.3785 13.8537 6.35653 13.8316 6.33175L13.8316 6.33175Z" fill="#FEFEFE"/>
<path d="M4.2726 10.9268L4.26123 10.1394C4.26123 10.1394 6.07679 10.1444 7.17573 10.1444C7.78769 10.1444 8.14132 10.1219 8.33931 10.0702C9.34532 9.82609 10.115 9.20717 10.7465 8.52227C11.0456 8.1355 11.091 7.88735 10.8956 7.6686L10.7234 7.59965L8.75391 7.58536C7.50148 7.57627 6.78443 7.55296 6.78443 7.52133C6.78443 7.45622 7.15422 7.19694 7.60701 6.94455L7.96865 6.74298H12.9873C13.2275 6.78604 13.2642 6.88437 13.2642 6.88437C13.4328 7.04707 13.4243 7.34987 13.2308 7.75101C13.1456 7.92776 12.9961 8.15693 12.8986 8.26027C11.7551 9.5971 10.4577 10.5164 9.10247 10.7987C7.51966 10.9984 5.84841 10.9388 4.2726 10.9268V10.9268Z" fill="#A90D18"/>
<path d="M2.87078 9.20693C2.67625 9.11099 2.57998 8.90028 2.62723 8.67386C3.15011 7.45069 4.10374 6.67999 5.15898 5.92081C6.62045 4.95857 8.59828 5.05697 9.65676 5.05849C10.613 5.0604 12.0283 5.06248 12.0283 5.06248L12.0378 5.85136L9.71976 5.87319C7.99953 5.86838 6.73352 6.06164 5.55131 7.15109C5.02923 7.67232 4.9009 7.91127 5.01202 8.15517C5.11976 8.39163 5.22312 8.40432 7.26009 8.43116L9.17196 8.45636L8.83698 8.7504C8.58258 8.9737 8.41546 9.07372 8.14229 9.16614L7.78259 9.28783L5.40638 9.28668C3.35688 9.2857 3.00825 9.27473 2.87078 9.20693Z" fill="#153A63"/>
</svg>
